images/yt-img.svg

<svg width="24" height="16" viewBox="0 0 24 16" fill="none" xmlns="http://www.w3.org/2000/svg">
<path fill-rule="evenodd" clip-rule="evenodd" d="M6.05444 0.214327C10.0118 -0.0714422 13.9874 -0.0714422 17.9448 0.214327L20.6024 0.407065C21.3222 0.45886 22.0025 0.731549 22.5349 1.18167C23.0672 1.6318 23.4211 2.23346 23.54 2.89076C24.1533 6.27463 24.1533 9.72749 23.54 13.1103C23.4211 13.7674 23.0675 14.3689 22.5353 14.819C22.0032 15.2691 21.3231 15.5419 20.6036 15.594L17.946 15.7856C13.9882 16.0715 10.0122 16.0715 6.05444 15.7856L3.39685 15.594C2.67706 15.5422 1.99676 15.2695 1.46438 14.8194C0.931994 14.3692 0.578159 13.7676 0.459263 13.1103C-0.153088 9.72721 -0.153088 6.27382 0.459263 2.89076C0.578107 2.23363 0.931769 1.6321 1.46392 1.18199C1.99606 0.731887 2.67608 0.459094 3.39566 0.407065L6.05325 0.215422L6.05444 0.214327ZM9.62677 10.7054V5.29561C9.62686 5.23755 9.64362 5.18055 9.67535 5.13042C9.70707 5.08029 9.75262 5.03881 9.80735 5.01021C9.86209 4.98161 9.92406 4.9669 9.98696 4.9676C10.0499 4.9683 10.1114 4.98436 10.1654 5.01416L15.0499 7.71907C15.1025 7.74829 15.146 7.78956 15.1762 7.83888C15.2064 7.88819 15.2222 7.94387 15.2222 8.00051C15.2222 8.05716 15.2064 8.11284 15.1762 8.16215C15.146 8.21146 15.1025 8.25273 15.0499 8.28195L10.1654 10.9869C10.1114 11.0167 10.0499 11.0327 9.98696 11.0334C9.92406 11.0341 9.86209 11.0194 9.80735 10.9908C9.75262 10.9622 9.70707 10.9207 9.67535 10.8706C9.64362 10.8205 9.62686 10.7635 9.62677 10.7054Z" fill="#2161AB"/>
</svg>

<svg width="24" height="16" fill="none" xmlns="http://www.w3.org/2000/svg"><path fill-rule="evenodd" clip-rule="evenodd" d="M6.054.214a82.563 82.563 0 0111.89 0l2.658.193c.72.052 1.4.325 1.933.775.532.45.886 1.051 1.005 1.709a28.612 28.612 0 010 10.22 2.926 2.926 0 01-1.005 1.708 3.37 3.37 0 01-1.931.775l-2.658.192a82.542 82.542 0 01-11.892 0l-2.657-.192a3.37 3.37 0 01-1.933-.775A2.926 2.926 0 01.46 13.11a28.655 28.655 0 010-10.22 2.926 2.926 0 011.005-1.708A3.37 3.37 0 013.396.407L6.053.215h.001zm3.573 10.491v-5.41a.31.31 0 01.048-.165.344.344 0 01.132-.12.38.38 0 01.358.004L15.05 7.72c.052.03.096.07.126.12a.309.309 0 010 .323.342.342 0 01-.126.12l-4.885 2.705a.378.378 0 01-.358.004.344.344 0 01-.132-.12.31.31 0 01-.048-.166z" fill="#2161AB"/></svg>
